src/assets/report-green.svg

<svg width="40" height="42" viewBox="0 0 40 42" fill="none" xmlns="http://www.w3.org/2000/svg">
<path d="M28.1429 9H36.6C37.4401 9 37.8601 9 38.181 9.16349C38.4632 9.3073 38.6927 9.53677 38.8365 9.81901C39 10.1399 39 10.5599 39 11.4V37.8C39 38.9201 39 39.4802 38.782 39.908C38.5903 40.2843 38.2843 40.5903 37.908 40.782C37.4802 41 36.9201 41 35.8 41H31.3429C30.2228 41 29.6627 41 29.2349 40.782C28.8586 40.5903 28.5526 40.2843 28.3608 39.908C28.1429 39.4802 28.1429 38.9201 28.1429 37.8V4.2C28.1429 3.0799 28.1429 2.51984 27.9249 2.09202C27.7331 1.71569 27.4272 1.40973 27.0508 1.21799C26.623 1 26.063 1 24.9429 1H4.2C3.07989 1 2.51984 1 2.09202 1.21799C1.71569 1.40973 1.40973 1.71569 1.21799 2.09202C1 2.51984 1 3.07989 1 4.2V37.8C1 38.9201 1 39.4802 1.21799 39.908C1.40973 40.2843 1.71569 40.5903 2.09202 40.782C2.51984 41 3.0799 41 4.2 41H33.5714" stroke="#6CBBA9" stroke-width="2"/>
<path d="M21.4 6H8.6C8.03995 6 7.75992 6 7.54601 6.10899C7.35785 6.20487 7.20487 6.35785 7.10899 6.54601C7 6.75992 7 7.03995 7 7.6V12.4C7 12.9601 7 13.2401 7.10899 13.454C7.20487 13.6422 7.35785 13.7951 7.54601 13.891C7.75992 14 8.03995 14 8.6 14H21.4C21.9601 14 22.2401 14 22.454 13.891C22.6422 13.7951 22.7951 13.6422 22.891 13.454C23 13.2401 23 12.9601 23 12.4V7.6C23 7.03995 23 6.75992 22.891 6.54601C22.7951 6.35785 22.6422 6.20487 22.454 6.10899C22.2401 6 21.9601 6 21.4 6Z" stroke="#6CBBA9" stroke-width="2"/>
<path d="M7 19C6.44772 19 6 19.4477 6 20C6 20.5523 6.44772 21 7 21V19ZM23 21C23.5523 21 24 20.5523 24 20C24 19.4477 23.5523 19 23 19V21ZM7 21H23V19H7V21Z" fill="#6CBBA9"/>
<path d="M7 24C6.44772 24 6 24.4477 6 25C6 25.5523 6.44772 26 7 26V24ZM23 26C23.5523 26 24 25.5523 24 25C24 24.4477 23.5523 24 23 24V26ZM7 26H23V24H7V26Z" fill="#6CBBA9"/>
<path d="M7 29C6.44772 29 6 29.4477 6 30C6 30.5523 6.44772 31 7 31V29ZM23 31C23.5523 31 24 30.5523 24 30C24 29.4477 23.5523 29 23 29V31ZM7 31H23V29H7V31Z" fill="#6CBBA9"/>
<path d="M7 35C6.44772 35 6 35.4477 6 36C6 36.5523 6.44772 37 7 37V35ZM18 37C18.5523 37 19 36.5523 19 36C19 35.4477 18.5523 35 18 35V37ZM7 37H18V35H7V37Z" fill="#6CBBA9"/>
</svg>

<svg width="40" height="42" fill="none" xmlns="http://www.w3.org/2000/svg"><path d="M28.143 9H36.6c.84 0 1.26 0 1.581.163a1.5 1.5 0 0 1 .656.656c.163.32.163.74.163 1.581v26.4c0 1.12 0 1.68-.218 2.108a2 2 0 0 1-.874.874C37.48 41 36.92 41 35.8 41h-4.457c-1.12 0-1.68 0-2.108-.218a2 2 0 0 1-.874-.874c-.218-.428-.218-.988-.218-2.108V4.2c0-1.12 0-1.68-.218-2.108a2 2 0 0 0-.874-.874C26.623 1 26.063 1 24.943 1H4.2c-1.12 0-1.68 0-2.108.218a2 2 0 0 0-.874.874C1 2.52 1 3.08 1 4.2v33.6c0 1.12 0 1.68.218 2.108a2 2 0 0 0 .874.874C2.52 41 3.08 41 4.2 41h29.371" stroke="#6CBBA9" stroke-width="2"/><path d="M21.4 6H8.6c-.56 0-.84 0-1.054.109a1 1 0 0 0-.437.437C7 6.76 7 7.04 7 7.6v4.8c0 .56 0 .84.109 1.054a1 1 0 0 0 .437.437C7.76 14 8.04 14 8.6 14h12.8c.56 0 .84 0 1.054-.109a1 1 0 0 0 .437-.437C23 13.24 23 12.96 23 12.4V7.6c0-.56 0-.84-.109-1.054a1 1 0 0 0-.437-.437C22.24 6 21.96 6 21.4 6Z" stroke="#6CBBA9" stroke-width="2"/><path d="M7 19a1 1 0 1 0 0 2v-2Zm16 2a1 1 0 1 0 0-2v2ZM7 21h16v-2H7v2ZM7 24a1 1 0 1 0 0 2v-2Zm16 2a1 1 0 1 0 0-2v2ZM7 26h16v-2H7v2ZM7 29a1 1 0 1 0 0 2v-2Zm16 2a1 1 0 1 0 0-2v2ZM7 31h16v-2H7v2ZM7 35a1 1 0 1 0 0 2v-2Zm11 2a1 1 0 1 0 0-2v2ZM7 37h11v-2H7v2Z" fill="#6CBBA9"/></svg>
